X:1
T:Fuir le Bonheur de peur qu'il ne se sauve
T:Fuir le bonheur de peur qui se sauve
T:Serge Gainsbourg
C:Serge Gainsbourg
Z:All Rights Reserved
L:1/4
M:4/4
K:C
V:1 treble nm="Piano" snm="Pno."
%%MIDI program 0
V:1
 D F, _B, C | D F F, _B, | C D _E G, | C D _E G | G, C D _E | F F, A, _B, | C _E F C | %7
 D _E D/C/ _B,- | B,2 z z!fine! :| _B G A B | d G A _B | A/ G/ F2 z | z/ _B G A B/- | %13
 B/ d G A _B/- | B/ A2 z/ z!D.C.! |] %15

